src/assets/icons/weeks,simple,42.svg

<svg width="48" height="48" viewBox="0 0 48 48" fill="none" xmlns="http://www.w3.org/2000/svg">
<rect opacity="0.2" x="5" y="5" width="38" height="38" rx="4" fill="black"/>
<path d="M5 13C5 9.22876 5 7.34315 6.17157 6.17157C7.34315 5 9.22876 5 13 5H35C38.7712 5 40.6569 5 41.8284 6.17157C43 7.34315 43 9.22876 43 13V15H5V13Z" fill="black"/>
<path d="M9.45916 34.9318H17.837V38H21.3654V34.9318H23.5302V31.9744H21.3654V20.5455H16.7461L9.45916 32.0256V34.9318ZM17.9052 31.9744H13.1751V31.8381L17.7688 24.5682H17.9052V31.9744ZM25.989 38H38.4322V34.983H31.1026V34.8636L33.6509 32.3665C37.239 29.0938 38.2021 27.4574 38.2021 25.4716C38.2021 22.446 35.7305 20.3068 31.989 20.3068C28.3242 20.3068 25.81 22.4972 25.8185 25.9233H29.3214C29.3129 24.2528 30.3697 23.2301 31.9634 23.2301C33.4975 23.2301 34.6396 24.1847 34.6396 25.7188C34.6396 27.108 33.7873 28.0625 32.2021 29.5881L25.989 35.3409V38Z" fill="black"/>
</svg>

<svg xmlns="http://www.w3.org/2000/svg" width="48" height="48" fill="none" viewBox="0 0 48 48">
  <rect width="38" height="38" x="5" y="5" fill="#000" opacity=".2" rx="4"/>
  <path fill="#000" d="M5 13c0-3.771 0-5.657 1.172-6.828C7.343 5 9.229 5 13 5h22c3.771 0 5.657 0 6.828 1.172C43 7.343 43 9.229 43 13v2H5v-2zM9.46 34.932h8.377V38h3.528v-3.068h2.165v-2.958h-2.165V20.546h-4.619L9.46 32.026v2.906zm8.445-2.958h-4.73v-.136l4.594-7.27h.136v7.406zM25.99 38h12.443v-3.017h-7.33v-.12l2.549-2.496c3.588-3.273 4.551-4.91 4.551-6.895 0-3.026-2.471-5.165-6.213-5.165-3.665 0-6.179 2.19-6.17 5.616h3.502c-.008-1.67 1.049-2.693 2.642-2.693 1.535 0 2.677.955 2.677 2.489 0 1.389-.853 2.343-2.438 3.87L25.99 35.34V38z"/>
</svg>
